svgs/sharp-solid/memo.svg

<svg xmlns="http://www.w3.org/2000/svg" viewBox="0 0 384 512"><!--! Font Awesome Pro 6.6.0 by @fontawesome - https://fontawesome.com License - https://fontawesome.com/license (Commercial License) Copyright 2024 Fonticons, Inc. --><path d="M384 0L0 0 0 512l384 0L384 0zM80 128l224 0 16 0 0 32-16 0L80 160l-16 0 0-32 16 0zm0 96l224 0 16 0 0 32-16 0L80 256l-16 0 0-32 16 0zm0 96l128 0 16 0 0 32-16 0L80 352l-16 0 0-32 16 0z"/></svg>

<svg xmlns="http://www.w3.org/2000/svg" viewBox="0 0 384 512"><!--! Font Awesome Pro 6.4.0 by @fontawesome - https://fontawesome.com License - https://fontawesome.com/license (Commercial License) Copyright 2023 Fonticons, Inc. --><path d="M384 0H0V512H384V0zM80 128H304h16v32H304 80 64V128H80zm0 96H304h16v32H304 80 64V224H80zm0 96H208h16v32H208 80 64V320H80z"/></svg>
